svg/UnitedNationsOCHA-Humanitarian/disaster_humanitarian_access_icon_box.svg

<svg xmlns="http://www.w3.org/2000/svg" viewBox="0 0 32 32" enable-background="new 0 0 32 32"><path fill="#407cca" d="m22.662 8.978l.867 2.609h-2.895v-2.609h2.028m9.338-2.578v19.2c0 3.521-2.88 6.4-6.4 6.4h-19.2c-3.52 0-6.4-2.88-6.4-6.4v-19.2c0-3.52 2.88-6.4 6.4-6.4h19.2c3.52 0 6.4 2.88 6.4 6.4m-26.428 7.875h13.291v-8.169h-13.291v8.169m5.831.209c-.881 0-1.594.712-1.594 1.591 0 .881.712 1.594 1.594 1.594.878 0 1.59-.713 1.59-1.594.0001-.878-.712-1.591-1.59-1.591m-5.831 1.175l1.641.416h2.02c0-.491.164-.938.438-1.303h-4.096v.887m20.856 6.648l-4.344-3.591v1.209h-16.512v4.8h16.512v1.172l4.344-3.59m-3.91-4.638c.878 0 1.594-.713 1.594-1.594 0-.878-.716-1.591-1.594-1.591-.882 0-1.594.712-1.594 1.591 0 .881.712 1.594 1.594 1.594m3.91-5.213l-2.029-.869-1.159-3.478v-.868h-3.631v7.531h-6.475c.275.366.439.813.439 1.303h6.771c0-1.2.974-2.172 2.174-2.172.844 0 1.573.484 1.933 1.188.128.25.211.534.229.831.003.05.011.1.011.153h1.737v-3.619m-3.042 3.619c0-.479-.389-.869-.868-.869-.48 0-.869.391-.869.869 0 .478.389.868.869.868.479 0 .868-.39.868-.868m-12.855 0c0 .478.391.868.872.868.477 0 .869-.391.869-.868 0-.479-.392-.869-.869-.869-.481 0-.872.391-.872.869"/></svg>

<?xml version="1.0" encoding="utf-8"?>
<!-- Generator: Adobe Illustrator 16.0.3, SVG Export Plug-In . SVG Version: 6.00 Build 0)  -->
<!DOCTYPE svg PUBLIC "-//W3C//DTD SVG 1.1//EN" "http://www.w3.org/Graphics/SVG/1.1/DTD/svg11.dtd">
<svg version="1.1" id="Layer_1" xmlns="http://www.w3.org/2000/svg" xmlns:xlink="http://www.w3.org/1999/xlink" x="0px" y="0px"
	 width="32px" height="32px" viewBox="0 0 32 32" enable-background="new 0 0 32 32" xml:space="preserve">
<path fill="#407CCA" d="M22.662,8.978l0.867,2.609h-2.895V8.978H22.662z M32,6.4v19.2c0,3.521-2.88,6.4-6.4,6.4H6.4
	C2.88,32,0,29.12,0,25.6V6.4C0,2.88,2.88,0,6.4,0h19.2C29.12,0,32,2.88,32,6.4z M5.572,14.275h13.291V6.106H5.572V14.275z
	 M11.403,14.484c-0.881,0-1.594,0.712-1.594,1.591c0,0.881,0.712,1.594,1.594,1.594c0.878,0,1.59-0.713,1.59-1.594
	C12.994,15.197,12.281,14.484,11.403,14.484z M5.572,15.659l1.641,0.416h2.017c0-0.491,0.164-0.938,0.438-1.303H5.572V15.659z
	 M26.428,22.307l-4.344-3.591v1.209H5.572v4.8h16.512v1.172L26.428,22.307z M22.518,17.669c0.878,0,1.594-0.713,1.594-1.594
	c0-0.878-0.716-1.591-1.594-1.591c-0.882,0-1.594,0.712-1.594,1.591C20.924,16.956,21.636,17.669,22.518,17.669z M26.428,12.456
	l-2.029-0.869L23.24,8.109V7.241h-3.631v7.531h-6.475c0.275,0.366,0.439,0.813,0.439,1.303h6.771c0-1.2,0.974-2.172,2.174-2.172
	c0.844,0,1.573,0.484,1.933,1.188c0.128,0.25,0.211,0.534,0.229,0.831c0.003,0.05,0.011,0.1,0.011,0.153h1.737V12.456z
	 M23.386,16.075c0-0.479-0.389-0.869-0.868-0.869c-0.48,0-0.869,0.391-0.869,0.869c0,0.478,0.389,0.868,0.869,0.868
	C22.997,16.943,23.386,16.553,23.386,16.075z M10.531,16.075c0,0.478,0.391,0.868,0.872,0.868c0.477,0,0.869-0.391,0.869-0.868
	c0-0.479-0.392-0.869-0.869-0.869C10.922,15.206,10.531,15.597,10.531,16.075z"/>
</svg>
